packages/icons/svg/Fill/award.svg

<svg fill="none" height="24" viewBox="0 0 24 24" width="24" xmlns="http://www.w3.org/2000/svg"><path clip-rule="evenodd" d="m12 4.00006c2.206 0 4 1.794 4 4 0 2.20604-1.794 4.00004-4 4.00004-2.20599 0-3.99999-1.794-3.99999-4.00004 0-2.206 1.794-4 3.99999-4zm6.969 16.75094-2.309-8.979c.836-1.032 1.34-2.343 1.34-3.772 0-3.309-2.691-6-6-6s-6 2.691-6 6c0 1.429.504 2.74 1.34 3.772l-2.309 8.979c-.1.392.044.805.367 1.048s.76.265 1.108.063l5.33-3.129 5.68 3.142c.151.084.318.125.484.125.217 0 .433-.07.612-.209.316-.244.456-.653.357-1.04z" fill="#6b7280" fill-rule="evenodd"/></svg>

<svg width="24" height="24" viewBox="0 0 24 24" fill="none" xmlns="http://www.w3.org/2000/svg">
<g id="Icon/Fill/award">
<path id="Mask" fill-rule="evenodd" clip-rule="evenodd" d="M12.0001 3.99991C14.2061 3.99991 16.0001 5.79391 16.0001 7.99991C16.0001 10.2059 14.2061 11.9999 12.0001 11.9999C9.79408 11.9999 8.00008 10.2059 8.00008 7.99991C8.00008 5.79391 9.79408 3.99991 12.0001 3.99991ZM18.9691 20.7509L16.6601 11.7719C17.4961 10.7399 18.0001 9.42891 18.0001 7.99991C18.0001 4.69091 15.3091 1.99991 12.0001 1.99991C8.69108 1.99991 6.00008 4.69091 6.00008 7.99991C6.00008 9.42891 6.50408 10.7399 7.34008 11.7719L5.03108 20.7509C4.93108 21.1429 5.07508 21.5559 5.39808 21.7989C5.72108 22.0419 6.15808 22.0639 6.50608 21.8619L11.8361 18.7329L17.5161 21.8749C17.6671 21.9589 17.8341 21.9999 18.0001 21.9999C18.2171 21.9999 18.4331 21.9299 18.6121 21.7909C18.9281 21.5469 19.0681 21.1379 18.9691 20.7509Z" fill="#000000"/>
</g>
</svg>
